X:602
T:St. Patrick's Day
M:6/8
L:1/8
K:G
D|:"G"G2 G GAB|dge dBG|"D"AGA "G"BGD|"C"E2 E E2 D|
"G"G2 G GAB|dge dBG|"D"AGA "G"BGD|1 "C"E2 F "G"G2 D:|2 "C"E2 F "G"G2 d
|:"G"def g2 g|"D"fed "C"edB|"G"def g2 g|"D"fed "Em"e2 e|"G"def g2 g|
"D"fed "C"gfe|"G"dBG GAB|dge dBG|"D"AGA "G"BGD|"Em"E2 E E2 D|
"G"G2 G GAB|dge dBG|"D"AGA "G"BGD|1 "C"E2 F "G"G2 d:|2 "C"E2 F "G"G3|]
